X:1
T:Baand-hunden og spurvene
T:Baand-hunden og spurvene
T:No. 96 i Læsebogen
T:Chr. Haslerud
T:N. Rolfsen
C:Chr. Haslerud
Z:N. Rolfsen
%%score [ 1 2 3 4 ]
L:1/8
Q:1/4=62
M:2/4
K:C
V:1 treble nm="Soprano"
V:2 treble nm="Alto"
V:3 treble-8 nm="Tenor"
V:4 bass nm="Bass"
V:1
!f!"^Lidt raskt" E | A (A/^G/) E (E/G/) | A (A/B/) c/ z/!p! d | e (c/d/) e (c/d/) | %4
w: Naar|fan- ten _ kom- mer _|lu- sken- * de saa|lumsk ved _ nat- te- *|
 !>!^d2 e/ z/!f! g | f (f/e/) d f | e (e/d/) c/ z/!p! (c/B/) | A (F/D/) E ^G | B2 A!mf! F/ D/ | %9
w: ti- der, saa|kan du _ tro, at|Tryg er * kar, som _|baa- de _ gjör og|bi- der aa haa|
 E z z2 | z2 z!f! (E/^G/) | A (B/c/) B (E/^G/) | B2 A z | z3 |] %14
w: haa|som _|baa- de _ gjör og _|bi- der||
V:2
!f! E | E E B, (B,/E/) | E (E/^G/) A/ z/!p! A | ^G A G A | !>!A2 ^G/ z/!f! =G | G G G G | %6
w: Naar|fan- ten kom- mer _|lu- sken- * de saa|lumsk ved nat- te-|ti- der, saa|kan du tro, at|
 G ^G A/ z/!p! (A/G/) | E (D/B,/) C E | D2 C z | z2 z!mf! A,/ ^G,/ | A, z z!f! E | E (^G/A/) G E | %12
w: Tryg er kar, som _|baa- de _ gjör og|bi- der|aa haa|haa som|baa- de _ gjör og|
 D2 C z | z3 |] %14
w: bi- der||
V:3
!f! ^G | A B ^G (G/B/) | c (c/d/) e/ z/!p! d | B (e/d/) B (e/d/) | !>!B2 B/ z/!f! c | %5
w: Naar|fan- ten kom- mer _|lu- sken- * de saa|lumsk ved _ nat- te- *|ti- der, saa|
 B (d/c/) B B | c B A/ z/!p! (e/d/) | c A A B | ^G2 A z | z!mf! c/ A/ B z | z2 z!f! (^G/B/) | %11
w: kan du _ tro, at|Tryg er kar, som _|baa- de gjör og|bi- der|aa haa haa|som _|
 c (d/e/) B (^G/B/) | ^G2 A z | z3 |] %14
w: baa- de _ gjör og _|bi- der||
V:4
!f! E, | D, E, E, (E,/D,/) | C, (C,/B,,/) A,,/ z/!p! F, | E, (E,/F,/) E, (E,/F,/) | %4
w: Naar|fan- ten kom- mer _|lu- sken- * de saa|lumsk ved _ nat- te- *|
 !>!^F,2 E,/ z/!f! E, | G,, (B,,/C,/) =F, D, | E, E, F,/ z/!p! (A,,/B,,/) | C, F, E, E, | %8
w: ti- der, saa|kan du _ tro, at|Tryg er kar, som _|baa- de gjör og|
 E,2 A, z | z4 | z!mf! C,/ D,/ E,!f! (E,/D,/) | C, (B,,/A,,/) E, E, | E,2 A,!pp! E,/ C,/ | %13
w: bi- der||aa haa haa som _|baa- de _ gjör og|bi- der aa haa|
 A,,2 z |] %14
w: haa.|

